X:99
T:Lass of Patie's Mill, The
C:arr. Carlo Minasi
M:C
L:1/8
B:Chappell's One Hundred Scotch Melodies
B:Arranged for the Concertina by Carlo Minasi
Q:"Andantino "1/4=140
Z:Peter Dunk 2012
K:C
!p!G>F|(E2 DC) ([E2C2] [G2E2])|\
([c3E3] [dG] [e2c2]) zG|([AF]BcB AGFE)|
%
([E2C2][D2B,2]) z G>F|{F}(E2 DC) ([E2C2][G2E2])|\
([c3E3] [dG] [e2c2]) z G|([AF] BcB [BFG,]cde)|\
[c4G4E4C4] z||
%
e2|(fedc) (cBAG)|([c3E3][dG][e2c2]) zG|\
([AF]B[cE][GE]) ([AF][GE][FD][EC])|([E4C4] [DB,]) z(ef)|
%
(ge)(fd) (ecAf)|([e2G2][d2F2]) z2 E2|\
(F2 GA) G2 [B2F2]|{[B2F2]}[c6E6]||

